packages/foundations/assets/icons/functional/images/security/key_14.svg

<svg width="14" height="14" viewBox="0 0 14 14" fill="none" xmlns="http://www.w3.org/2000/svg">
<g clip-path="url(#clip0_187_273)">
<path fill-rule="evenodd" clip-rule="evenodd" d="M10.5756 1.4756L11.8258 1.4826C12.1149 1.491 12.4285 1.8102 12.4495 2.1602L12.6 4.8286C12.5755 5.1737 12.3067 5.46 11.9532 5.4985L11.172 5.5832L11.0628 6.4757C10.9928 6.7417 10.7772 6.94889 10.5014 7.0042L9.47799 7.2086L9.21504 7.47102C9.17879 7.50724 9.14143 7.54457 9.1042 7.58178L8.8061 7.87979L8.743 7.9429C9.0706 9.4521 8.5344 10.6582 7.7567 11.4352C6.3112 12.8807 3.9508 12.8961 2.4906 11.4352C1.0297 9.97499 1.043 7.616 2.4906 6.1691C3.2676 5.3921 4.3526 5.0043 5.3886 5.0869L8.7948 1.6898C8.94179 1.5428 9.1406 1.4749 9.3016 1.4749L10.5756 1.4756ZM9.5886 2.8749L5.9206 6.5331L5.278 6.4827C5.2234 6.4778 5.1688 6.4757 5.1142 6.4757C4.5101 6.4757 3.9144 6.7249 3.4804 7.1596C3.0429 7.5964 2.8007 8.17879 2.79999 8.7997C2.7993 9.4213 3.0408 10.0058 3.4804 10.4461C3.9186 10.8843 4.5017 11.1251 5.1219 11.1251C5.7449 11.1251 6.3287 10.8843 6.7662 10.4461C7.1743 10.0387 7.61039 9.3247 7.3752 8.2397L7.2135 7.4949L8.7885 5.9185L9.744 5.7274L9.91689 4.3099L11.1608 4.1762L11.0873 2.8784L9.5886 2.8749ZM5.88007 8.04559C6.29797 8.46349 6.29797 9.14109 5.88007 9.55899C5.46217 9.97689 4.78457 9.97689 4.36667 9.55899C3.94877 9.14109 3.94877 8.46349 4.36667 8.04559C4.78457 7.62769 5.46217 7.62769 5.88007 8.04559Z" fill="#1A1C1F"/>
</g>
<defs>
<clipPath id="clip0_187_273">
<rect width="14" height="14" fill="white"/>
</clipPath>
</defs>
</svg>

<svg xmlns="http://www.w3.org/2000/svg" width="14" height="14" fill="none"><g clip-path="url(#a)"><path fill="#1A1C1F" fill-rule="evenodd" d="m10.576 1.476 1.25.007c.289.008.602.327.624.677l.15 2.669a.73.73 0 0 1-.647.67l-.781.084-.11.893a.73.73 0 0 1-.56.528l-1.024.205-.263.262-.11.11-.299.299-.063.063c.328 1.51-.209 2.715-.986 3.492A3.724 3.724 0 1 1 2.49 6.17a3.73 3.73 0 0 1 2.898-1.082L8.795 1.69a.74.74 0 0 1 .507-.215zm-.987 1.399L5.92 6.533l-.643-.05a2.328 2.328 0 0 0-1.798 3.963 2.3 2.3 0 0 0 1.642.68c.623 0 1.207-.242 1.644-.68.408-.407.844-1.121.61-2.206l-.163-.745L8.79 5.918l.955-.19.173-1.418 1.244-.134-.074-1.298zM5.88 8.045A1.07 1.07 0 1 1 4.367 9.56 1.07 1.07 0 0 1 5.88 8.046" clip-rule="evenodd"/></g><defs><clipPath id="a"><path fill="#fff" d="M0 0h14v14H0z"/></clipPath></defs></svg>
